X:1
T:Title
T:Menuet (BWV ANh.132)
T:Johann Sebastian Bach (1685-1750)
T:for Harpsichord
C:Composer
%%score { 1 | 2 }
L:1/8
M:3/4
K:F
V:1 treble nm="Piano" snm="Pf."
V:2 bass 
V:1
 A2 fe d^c | d2 A2 B2 | ^CE GB AG | F2 EF D2 | F2 (BA) (dc) | f2 ed cB | (AB/c/) F2 E2 |1 F6 :|2 %8
 F6 |: a2 Fa gf | (e/f/g) c4 | f2 Df ed | (^c/d/e) A4 | A=B ^cd ef | ge ^cb ag | (f/e/d) e2 ^c2 |1 %16
 d6 :|2 d6 |] %18
V:2
 D,4 E,2 | F,4 G,2 | A,4 A,,2 | D,2 A,,2 D,,2 | D,2 C,2 B,,2 | A,,4 E,2 | F,2 A,,2 C,2 |1 %7
 F,,2 F,E, D,^C, :|2 F,2 C,2 F,,2 |: F,2 G,2 A,2 | C3 G, E,C, | D,2 C,2 B,,2 | A,,=B,, ^C,D, E,F, | %13
 G,2 E,2 ^C,2 | A,,2 A,2 ^C2 | D2 G,2 A,2 |1 D2 D,,A,, D,E, :|2 D,2 A,,2 D,,2 |] %18

